assets/button-secondary.svg

<?xml version="1.0" encoding="UTF-8"?>
<svg width="300px" height="44px" viewBox="0 0 300 44" version="1.1" xmlns="http://www.w3.org/2000/svg" xmlns:xlink="http://www.w3.org/1999/xlink">
    <title>button-secondary</title>
    <g id="Buttons" stroke="none" stroke-width="1" fill="none" fill-rule="evenodd">
        <g id="button-secondary">
            <g id="Button-Shape" fill="#000000">
                <path d="M7.6916556,-3.10752092e-16 L292.308344,3.10752092e-16 C294.982901,-1.80555915e-16 295.952759,0.278476833 296.930537,0.801398111 C297.908315,1.32431939 298.675681,2.09168511 299.198602,3.06946289 C299.721523,4.04724067 300,5.01709938 300,7.6916556 L300,36.3083444 C300,38.9829006 299.721523,39.9527593 299.198602,40.9305371 C298.675681,41.9083149 297.908315,42.6756806 296.930537,43.1986019 C295.952759,43.7215232 294.982901,44 292.308344,44 L7.6916556,44 C5.01709938,44 4.04724067,43.7215232 3.06946289,43.1986019 C2.09168511,42.6756806 1.32431939,41.9083149 0.801398111,40.9305371 C0.278476833,39.9527593 1.70106086e-15,38.9829006 -2.92767048e-15,36.3083444 L2.07168062e-16,7.6916556 C-1.2037061e-16,5.01709938 0.278476833,4.04724067 0.801398111,3.06946289 C1.32431939,2.09168511 2.09168511,1.32431939 3.06946289,0.801398111 C4.04724067,0.278476833 5.01709938,1.80555915e-16 7.6916556,-3.10752092e-16 Z" id="Appearance"></path>
            </g>
            <g id="Label" transform="translate(99.007389, 9.000000)" fill="#FFFFFF" font-family="CircularStd-Medium, Circular Std" font-size="21" font-weight="400" letter-spacing="0.399" line-spacing="24">
                <g id="Group">
                    <text id="Getting-Started">
                        <tspan x="0" y="21">Download</tspan>
                    </text>
                </g>
            </g>
        </g>
    </g>
</svg>

<svg width="300" height="44" xmlns="http://www.w3.org/2000/svg"><g fill="none" fill-rule="evenodd"><path d="M7.692 0h284.616c2.675 0 3.645.278 4.623.801a5.452 5.452 0 0 1 2.268 2.268c.523.978.801 1.948.801 4.623v28.616c0 2.675-.278 3.645-.801 4.623a5.452 5.452 0 0 1-2.268 2.268c-.978.523-1.948.801-4.623.801H7.692c-2.675 0-3.645-.278-4.623-.801A5.452 5.452 0 0 1 .801 40.93C.278 39.953 0 38.983 0 36.308V7.692c0-2.675.278-3.645.801-4.623A5.452 5.452 0 0 1 3.07.801C4.047.278 5.017 0 7.692 0z" fill="#000"/><text transform="translate(99.007 9)" fill="#FFF" font-family="CircularStd-Medium, Circular Std" font-size="21" font-weight="400" letter-spacing=".399"><tspan x="0" y="21">Download</tspan></text></g></svg>
